public/images/building.svg

<?xml version="1.0" encoding="UTF-8"?>
<svg width="480px" height="480px" viewBox="0 0 480 480" version="1.1" xmlns="http://www.w3.org/2000/svg" xmlns:xlink="http://www.w3.org/1999/xlink">
    <g stroke="none" stroke-width="1" fill="#007cc3" fill-rule="evenodd">
        <g fill="#007cc3" fill-rule="nonzero">
            <path d="M472,464 C476.418,464 480,467.582 480,472 C480,476.418 476.418,480 472,480 L8,480 C3.582,480 0,476.418 0,472 C0,467.582 3.582,464 8,464 L80,464 L80,8 C80,3.582 83.582,0 88,0 L296,0 C300.418,0 304,3.582 304,8 L304,192 L416,192 C420.418,192 424,195.582 424,200 L424,464 L472,464 Z M168,464 L168,392 C168,387.582 164.418,384 160,384 L144,384 C139.582,384 136,387.582 136,392 L136,464 L168,464 Z M200,200 C200,195.582 203.582,192 208,192 L288,192 L288,16 L96,16 L96,464 L120,464 L120,392 C120,378.745 130.745,368 144,368 L160,368 C173.255,368 184,378.745 184,392 L184,464 L200,464 L200,200 Z M408,464 L408,208 L216,208 L216,464 L408,464 Z M256,112 C260.418,112 264,115.582 264,120 L264,168 C264,172.418 260.418,176 256,176 L208,176 C203.582,176 200,172.418 200,168 L200,120 C200,115.582 203.582,112 208,112 L256,112 Z M248,160 L248,128 L216,128 L216,160 L248,160 Z M256,32 C260.418,32 264,35.582 264,40 L264,88 C264,92.418 260.418,96 256,96 L208,96 C203.582,96 200,92.418 200,88 L200,40 C200,35.582 203.582,32 208,32 L256,32 Z M248,80 L248,48 L216,48 L216,80 L248,80 Z M176,112 C180.418,112 184,115.582 184,120 L184,168 C184,172.418 180.418,176 176,176 L128,176 C123.582,176 120,172.418 120,168 L120,120 C120,115.582 123.582,112 128,112 L176,112 Z M168,160 L168,128 L136,128 L136,160 L168,160 Z M176,32 C180.418,32 184,35.582 184,40 L184,88 C184,92.418 180.418,96 176,96 L128,96 C123.582,96 120,92.418 120,88 L120,40 C120,35.582 123.582,32 128,32 L176,32 Z M168,80 L168,48 L136,48 L136,80 L168,80 Z M176,192 C180.418,192 184,195.582 184,200 L184,248 C184,252.418 180.418,256 176,256 L128,256 C123.582,256 120,252.418 120,248 L120,200 C120,195.582 123.582,192 128,192 L176,192 Z M168,240 L168,208 L136,208 L136,240 L168,240 Z M176,272 C180.418,272 184,275.582 184,280 L184,328 C184,332.418 180.418,336 176,336 L128,336 C123.582,336 120,332.418 120,328 L120,280 C120,275.582 123.582,272 128,272 L176,272 Z M168,320 L168,288 L136,288 L136,320 L168,320 Z M328,368 C323.582,368 320,364.418 320,360 L320,312 C320,307.582 323.582,304 328,304 L376,304 C380.418,304 384,307.582 384,312 L384,360 C384,364.418 380.418,368 376,368 L328,368 Z M336,320 L336,352 L368,352 L368,320 L336,320 Z M328,288 C323.582,288 320,284.418 320,280 L320,232 C320,227.582 323.582,224 328,224 L376,224 C380.418,224 384,227.582 384,232 L384,280 C384,284.418 380.418,288 376,288 L328,288 Z M336,240 L336,272 L368,272 L368,240 L336,240 Z M328,448 C323.582,448 320,444.418 320,440 L320,392 C320,387.582 323.582,384 328,384 L376,384 C380.418,384 384,387.582 384,392 L384,440 C384,444.418 380.418,448 376,448 L328,448 Z M336,400 L336,432 L368,432 L368,400 L336,400 Z M248,368 C243.582,368 240,364.418 240,360 L240,312 C240,307.582 243.582,304 248,304 L296,304 C300.418,304 304,307.582 304,312 L304,360 C304,364.418 300.418,368 296,368 L248,368 Z M256,320 L256,352 L288,352 L288,320 L256,320 Z M248,288 C243.582,288 240,284.418 240,280 L240,232 C240,227.582 243.582,224 248,224 L296,224 C300.418,224 304,227.582 304,232 L304,280 C304,284.418 300.418,288 296,288 L248,288 Z M256,240 L256,272 L288,272 L288,240 L256,240 Z M248,448 C243.582,448 240,444.418 240,440 L240,392 C240,387.582 243.582,384 248,384 L296,384 C300.418,384 304,387.582 304,392 L304,440 C304,444.418 300.418,448 296,448 L248,448 Z M256,400 L256,432 L288,432 L288,400 L256,400 Z" id="Combined-Shape"></path>
        </g>
    </g>
</svg>

<svg width="480" height="480" viewBox="0 0 500 500" xmlns="http://www.w3.org/2000/svg">
    <path d="M472 464a8 8 0 010 16H8a8 8 0 010-16h72V8a8 8 0 018-8h208a8 8 0 018 8v184h112a8 8 0 018 8v264h48zm-304 0v-72a8 8 0 00-8-8h-16a8 8 0 00-8 8v72h32zm32-264a8 8 0 018-8h80V16H96v448h24v-72c0-13.255 10.745-24 24-24h16c13.255 0 24 10.745 24 24v72h16V200zm208 264V208H216v256h192zM256 112a8 8 0 018 8v48a8 8 0 01-8 8h-48a8 8 0 01-8-8v-48a8 8 0 018-8h48zm-8 48v-32h-32v32h32zm8-128a8 8 0 018 8v48a8 8 0 01-8 8h-48a8 8 0 01-8-8V40a8 8 0 018-8h48zm-8 48V48h-32v32h32zm-72 32a8 8 0 018 8v48a8 8 0 01-8 8h-48a8 8 0 01-8-8v-48a8 8 0 018-8h48zm-8 48v-32h-32v32h32zm8-128a8 8 0 018 8v48a8 8 0 01-8 8h-48a8 8 0 01-8-8V40a8 8 0 018-8h48zm-8 48V48h-32v32h32zm8 112a8 8 0 018 8v48a8 8 0 01-8 8h-48a8 8 0 01-8-8v-48a8 8 0 018-8h48zm-8 48v-32h-32v32h32zm8 32a8 8 0 018 8v48a8 8 0 01-8 8h-48a8 8 0 01-8-8v-48a8 8 0 018-8h48zm-8 48v-32h-32v32h32zm160 48a8 8 0 01-8-8v-48a8 8 0 018-8h48a8 8 0 018 8v48a8 8 0 01-8 8h-48zm8-48v32h32v-32h-32zm-8-32a8 8 0 01-8-8v-48a8 8 0 018-8h48a8 8 0 018 8v48a8 8 0 01-8 8h-48zm8-48v32h32v-32h-32zm-8 208a8 8 0 01-8-8v-48a8 8 0 018-8h48a8 8 0 018 8v48a8 8 0 01-8 8h-48zm8-48v32h32v-32h-32zm-88-32a8 8 0 01-8-8v-48a8 8 0 018-8h48a8 8 0 018 8v48a8 8 0 01-8 8h-48zm8-48v32h32v-32h-32zm-8-32a8 8 0 01-8-8v-48a8 8 0 018-8h48a8 8 0 018 8v48a8 8 0 01-8 8h-48zm8-48v32h32v-32h-32zm-8 208a8 8 0 01-8-8v-48a8 8 0 018-8h48a8 8 0 018 8v48a8 8 0 01-8 8h-48zm8-48v32h32v-32h-32z" fill-rule="nonzero" fill="#007cc3"/>
</svg>
